Newaita-dark/actions/16/mail-attachment.svg

<svg height="16" viewBox="0 0 16 16" width="16" xmlns="http://www.w3.org/2000/svg"><path d="m10.457031 1.800781c-.792969-.015625-1.636719.238281-2.28125.886719l-4.914062 4.910156c-.167969.164063-.238281.410156-.175781.640625.058593.230469.238281.410157.46875.46875.230468.0625.472656-.007812.640624-.179687l4.910157-4.910156c.429687-.429688.957031-.554688 1.53125-.484376.574219.070313 1.164062.367188 1.511719.71875.351562.351563.652343.9375.71875 1.511719.070312.574219-.054688 1.101563-.484376 1.53125l-6.078124 6.082031c-.390626.390626-.71875.433594-1.066407.382813-.34375-.046875-.691406-.265625-.808593-.382813-.121094-.117187-.335938-.464843-.386719-.808593-.046875-.339844-.003907-.671875.386719-1.070313l5.144531-5.140625c.117187-.117187.171875-.121093.242187-.117187.066406.003906.15625.042968.230469.117187.070313.070313.109375.164063.113281.230469s.003906.125-.113281.242188l-3.859375 3.859374c-.171875.164063-.238281.410157-.179688.636719.058594.230469.238282.410157.46875.472657.230469.058593.476563-.007813.640626-.179688l3.859374-3.859375c.351563-.351563.523438-.820313.5-1.25-.027343-.429687-.222656-.804687-.5-1.085937-.277343-.277344-.65625-.472657-1.085937-.496094-.429687-.027344-.898437.148437-1.25.496094l-5.144531 5.148437s0 0-.003906 0c-.660157.671875-.847657 1.507813-.75 2.183594.09375.679687.40625 1.203125.753906 1.550781.351562.351562.878906.660156 1.558594.757812.675781.097657 1.515624-.089843 2.179687-.757812l6.082031-6.078125c.738282-.742187.964844-1.734375.859375-2.621094s-.511719-1.703125-1.09375-2.285156c-.585937-.585937-1.398437-.988281-2.289062-1.097656-.109375-.011719-.222657-.019531-.335938-.023438zm0 0" fill="#e0e0e0"/></svg>

<svg xmlns="http://www.w3.org/2000/svg" xmlns:xlink="http://www.w3.org/1999/xlink" width="16px" height="16px" viewBox="0 0 16 16" version="1.1">
<g id="surface1">
     <defs>
  <style id="current-color-scheme" type="text/css">
   .ColorScheme-Text { color:#eeeeee; } .ColorScheme-Highlight { color:#424242; }
  </style>
 </defs>
<path style="fill:currentColor" class="ColorScheme-Text" d="M 10.457031 1.800781 C 9.664062 1.785156 8.820312 2.039062 8.175781 2.6875 L 3.261719 7.597656 C 3.09375 7.761719 3.023438 8.007812 3.085938 8.238281 C 3.144531 8.46875 3.324219 8.648438 3.554688 8.707031 C 3.785156 8.769531 4.027344 8.699219 4.195312 8.527344 L 9.105469 3.617188 C 9.535156 3.1875 10.0625 3.0625 10.636719 3.132812 C 11.210938 3.203125 11.800781 3.5 12.148438 3.851562 C 12.5 4.203125 12.800781 4.789062 12.867188 5.363281 C 12.9375 5.9375 12.8125 6.464844 12.382812 6.894531 L 6.304688 12.976562 C 5.914062 13.367188 5.585938 13.410156 5.238281 13.359375 C 4.894531 13.3125 4.546875 13.09375 4.429688 12.976562 C 4.308594 12.859375 4.09375 12.511719 4.042969 12.167969 C 3.996094 11.828125 4.039062 11.496094 4.429688 11.097656 L 9.574219 5.957031 C 9.691406 5.839844 9.746094 5.835938 9.816406 5.839844 C 9.882812 5.84375 9.972656 5.882812 10.046875 5.957031 C 10.117188 6.027344 10.15625 6.121094 10.160156 6.1875 C 10.164062 6.253906 10.164062 6.3125 10.046875 6.429688 L 6.1875 10.289062 C 6.015625 10.453125 5.949219 10.699219 6.007812 10.925781 C 6.066406 11.15625 6.246094 11.335938 6.476562 11.398438 C 6.707031 11.457031 6.953125 11.390625 7.117188 11.21875 L 10.976562 7.359375 C 11.328125 7.007812 11.5 6.539062 11.476562 6.109375 C 11.449219 5.679688 11.253906 5.304688 10.976562 5.023438 C 10.699219 4.746094 10.320312 4.550781 9.890625 4.527344 C 9.460938 4.5 8.992188 4.675781 8.640625 5.023438 L 3.496094 10.171875 C 3.496094 10.171875 3.496094 10.171875 3.492188 10.171875 C 2.832031 10.84375 2.644531 11.679688 2.742188 12.355469 C 2.835938 13.035156 3.148438 13.558594 3.496094 13.90625 C 3.847656 14.257812 4.375 14.566406 5.054688 14.664062 C 5.730469 14.761719 6.570312 14.574219 7.234375 13.90625 L 13.316406 7.828125 C 14.054688 7.085938 14.28125 6.09375 14.175781 5.207031 C 14.070312 4.320312 13.664062 3.503906 13.082031 2.921875 C 12.496094 2.335938 11.683594 1.933594 10.792969 1.824219 C 10.683594 1.8125 10.570312 1.804688 10.457031 1.800781 Z M 10.457031 1.800781 "/>
</g>
</svg>
